src/dsmComponents/Icons/location-pin-area-24px.svg

<svg width="24" height="24" xmlns="http://www.w3.org/2000/svg" xmlns:xlink="http://www.w3.org/1999/xlink"><defs><path d="M12 0C8.067 0 4 2.992 4 8c0 4.6 6.544 11.327 7.29 12.08a1 1 0 001.42 0C13.456 19.327 20 12.6 20 8c0-5.008-4.067-8-8-8zM5.647 16.538c.462.635.929 1.237 1.386 1.795-3.055.441-4.848 1.219-5.039 1.708.279.628 3.963 1.958 10.006 1.958 5.925 0 9.582-1.278 9.986-2-.275-.49-2.053-1.236-5.021-1.665a39.05 39.05 0 001.387-1.795C21.399 17.095 24 18.147 24 20c0 3.158-7.543 4-12 4s-12-.842-12-4c0-1.853 2.601-2.905 5.647-3.462zM12 6a2 2 0 11.001 3.999A2 2 0 0112 6z" id="location-pin-area-24px_svg__a"/></defs><use fill="#737373" xlink:href="#location-pin-area-24px_svg__a" fill-rule="evenodd"/></svg>

<?xml version="1.0" encoding="UTF-8"?>
<svg width="24px" height="24px" viewBox="0 0 24 24" version="1.1" xmlns="http://www.w3.org/2000/svg" xmlns:xlink="http://www.w3.org/1999/xlink">
    <!-- Generator: Sketch 59.1 (86144) - https://sketch.com -->
    <title>location-pin-area-24px</title>
    <desc>Created with Sketch.</desc>
    <defs>
        <path d="M12,0 C8.067,0 4,2.992 4,8 C4,12.6 10.544,19.327 11.29,20.08 C11.478,20.269 11.733,20.375 12,20.375 C12.267,20.375 12.522,20.269 12.71,20.08 C13.456,19.327 20,12.6 20,8 C20,2.992 15.933,0 12,0 Z M5.647,16.538 C6.109,17.173 6.576,17.775 7.033,18.333 C3.978,18.774 2.185,19.552 1.994,20.041 C2.273,20.669 5.957,21.999 12,21.999 C17.925,21.999 21.582,20.721 21.986,19.999 C21.711,19.509 19.933,18.763 16.965,18.334 C17.423,17.776 17.89,17.174 18.352,16.539 C21.399,17.095 24,18.147 24,20 C24,23.158 16.457,24 12,24 C7.543,24 0,23.158 0,20 C0,18.147 2.601,17.095 5.647,16.538 Z M12,6 C13.105,6 14,6.895 14,8 C14,9.105 13.105,10 12,10 C10.895,10 10,9.105 10,8 C10,6.895 10.895,6 12,6 Z" id="path-1"></path>
    </defs>
    <g id="Final" stroke="none" stroke-width="1" fill="none" fill-rule="evenodd">
        <g id="All-Nucleo-Icons" transform="translate(-608.000000, -4252.000000)">
            <g id="Solo/Nucleo/24px/location-pin-area" transform="translate(608.000000, 4252.000000)">
                <g id="position-pin">
                    <g id="Colour/Default-Colour">
                        <mask id="mask-2" fill="white">
                            <use xlink:href="#path-1"></use>
                        </mask>
                        <g id="Mask" fill-rule="nonzero"></g>
                        <g id="colour/neutral/chia" mask="url(#mask-2)" fill="#737373">
                            <g transform="translate(-20.000000, -20.000000)" id="Colour">
                                <rect x="0" y="0" width="64" height="64"></rect>
                            </g>
                        </g>
                    </g>
                </g>
            </g>
        </g>
    </g>
</svg>
